src/img/icons/multimedia-video-player.svg

<svg xmlns="http://www.w3.org/2000/svg" xmlns:xlink="http://www.w3.org/1999/xlink" width="384pt" height="384pt" version="1.1" viewBox="0 0 384 384"> <defs> <linearGradient id="linear0" x1="165.125" x2="267.836" y1="53.815" y2="394.134" gradientTransform="matrix(0.753855,0,0,0.69848,-0.948249,5.29086)" gradientUnits="userSpaceOnUse"> <stop offset="0" style="stop-color:rgb(15.294%,16.470%,20.392%)"/> <stop offset="1" style="stop-color:rgb(29.803%,29.803%,29.803%)"/> </linearGradient> <filter id="alpha" width="100%" height="100%" x="0%" y="0%" filterUnits="objectBoundingBox"> <feColorMatrix in="SourceGraphic" type="matrix" values="0 0 0 0 1 0 0 0 0 1 0 0 0 0 1 0 0 0 1 0"/> </filter> <mask id="mask0"> <g filter="url(#alpha)"> <rect width="384" height="384" x="0" y="0" style="fill:rgb(0%,0%,0%);fill-opacity:0.301961"/> </g> </mask> <clipPath id="clip1"> <rect width="384" height="384" x="0" y="0"/> </clipPath> <g id="surface5" clip-path="url(#clip1)"> <path style="fill:rgb(0%,0%,0%)" d="M 361.578125 314.078125 C 361.578125 317.453125 359.011719 320.199219 355.714844 320.488281 L 27.964844 320.488281 C 25.355469 320.261719 23.207031 318.492188 22.421875 316.089844 L 22.421875 323.589844 C 23.207031 325.992188 25.355469 327.761719 27.964844 327.988281 L 355.714844 327.988281 C 359.011719 327.699219 361.578125 324.953125 361.578125 321.578125 Z M 361.578125 314.078125"/> </g> <mask id="mask1"> <g filter="url(#alpha)"> <rect width="384" height="384" x="0" y="0" style="fill:rgb(0%,0%,0%);fill-opacity:0.2"/> </g> </mask> <clipPath id="clip2"> <rect width="384" height="384" x="0" y="0"/> </clipPath> <g id="surface8" clip-path="url(#clip2)"> <path style="fill:rgb(0%,0%,0%)" d="M 100.867188 173.480469 C 102.5625 165.675781 109.488281 159.847656 117.773438 159.863281 L 217.765625 160.019531 C 227.3125 160.039062 235.050781 167.785156 235.03125 177.332031 L 235 209.070312 L 283.632812 173.519531 L 283.503906 243.574219 L 234.957031 209.773438 L 234.941406 239.632812 C 234.972656 249.207031 227.183594 256.953125 217.636719 256.933594 L 117.640625 256.78125 C 112.867188 256.765625 108.792969 255.078125 105.421875 251.714844 C 102.042969 248.324219 100.359375 244.230469 100.371094 239.429688 L 100.460938 182.902344 Z M 100.867188 173.480469"/> </g> <mask id="mask2"> <g filter="url(#alpha)"> <rect width="384" height="384" x="0" y="0" style="fill:rgb(0%,0%,0%);fill-opacity:0.2"/> </g> </mask> <clipPath id="clip3"> <rect width="384" height="384" x="0" y="0"/> </clipPath> <g id="surface11" clip-path="url(#clip3)"> <path style="fill:rgb(0%,0%,0%)" d="M 100.867188 178.5625 C 102.5625 170.757812 109.488281 164.929688 117.773438 164.945312 L 217.765625 165.101562 C 227.3125 165.121094 235.050781 172.867188 235.03125 182.414062 L 235 214.152344 L 283.632812 178.601562 L 283.503906 248.65625 L 234.957031 214.855469 L 234.941406 244.714844 C 234.972656 254.292969 227.183594 262.035156 217.636719 262.015625 L 117.640625 261.863281 C 112.867188 261.847656 108.792969 260.160156 105.421875 256.796875 C 102.042969 253.410156 100.359375 249.3125 100.371094 244.511719 L 100.460938 187.984375 Z M 100.867188 178.5625"/> </g> <mask id="mask3"> <g filter="url(#alpha)"> <rect width="384" height="384" x="0" y="0" style="fill:rgb(0%,0%,0%);fill-opacity:0.301961"/> </g> </mask> <clipPath id="clip4"> <rect width="384" height="384" x="0" y="0"/> </clipPath> <g id="surface14" clip-path="url(#clip4)"> <path style="fill:rgb(0%,0%,0%)" d="M 30.960938 56.238281 C 26.261719 56.238281 22.476562 60.023438 22.476562 64.722656 L 22.476562 78.808594 L 361.382812 78.808594 L 361.382812 64.722656 C 361.382812 60.023438 357.597656 56.238281 352.898438 56.238281 Z M 30.960938 56.238281"/> </g> </defs> <g> <path style="fill:rgb(37.647%,38.823%,43.137%)" d="M 30.964844 56.234375 L 352.898438 56.234375 C 357.585938 56.234375 361.382812 60.035156 361.382812 64.71875 L 361.382812 194.75 C 361.382812 199.4375 357.585938 203.234375 352.898438 203.234375 L 30.964844 203.234375 C 26.277344 203.234375 22.476562 199.4375 22.476562 194.75 L 22.476562 64.71875 C 22.476562 60.035156 26.277344 56.234375 30.964844 56.234375 Z M 30.964844 56.234375"/> <path style="fill:url(#linear0)" d="M 82.832031 56.011719 C 70.839844 56.011719 60.90625 56.128906 60.761719 56.273438 C 60.613281 56.417969 65.546875 61.554688 71.722656 67.6875 L 82.953125 78.789062 L 82.851562 90.871094 L 82.75 102.902344 L 52.632812 103 L 22.511719 103.097656 L 22.511719 131.445312 C 22.484375 131.523438 22.445312 131.597656 22.421875 131.679688 L 22.421875 323.570312 C 23.199219 325.964844 25.324219 327.734375 27.90625 327.984375 L 355.769531 327.984375 C 359.039062 327.667969 361.578125 324.917969 361.578125 321.550781 L 361.578125 133.699219 C 361.578125 133.40625 361.554688 133.117188 361.515625 132.835938 L 361.308594 65.859375 C 361.308594 61.023438 359.328125 56.371094 352.242188 56.292969 L 334.992188 56.101562 C 325.207031 55.992188 319.5 56.074219 319.199219 56.371094 C 318.894531 56.675781 321.710938 59.695312 329.6875 67.605469 C 335.6875 73.554688 340.71875 78.628906 340.867188 78.789062 C 341.019531 78.949219 335.683594 84.421875 329.011719 91.046875 L 316.878906 103.09375 L 301.785156 103.09375 C 291.257812 103.09375 286.617188 102.96875 286.4375 102.679688 C 286.289062 102.441406 291.308594 97.175781 298.28125 90.253906 L 310.378906 78.789062 L 299.75 67.664062 C 293.902344 61.847656 288.65625 56.84375 288.09375 56.550781 C 287.257812 56.109375 284.429688 56.011719 272.820312 56.011719 C 262.683594 56.011719 258.492188 56.132812 258.304688 56.433594 C 258.148438 56.6875 262.449219 61.230469 268.914062 67.640625 C 274.894531 73.570312 279.910156 78.628906 280.058594 78.789062 C 280.210938 78.949219 274.875 84.421875 268.203125 91.046875 L 256.070312 103.09375 L 240.976562 103.09375 C 230.449219 103.09375 225.808594 102.96875 225.628906 102.679688 C 225.480469 102.441406 230.5 97.175781 237.472656 90.253906 L 249.570312 78.789062 L 238.941406 67.664062 C 233.09375 61.847656 227.847656 56.84375 227.285156 56.550781 C 226.449219 56.109375 223.621094 56.011719 212.011719 56.011719 C 201.875 56.011719 197.683594 56.132812 197.496094 56.433594 C 197.339844 56.6875 201.640625 61.230469 208.105469 67.640625 C 214.085938 73.570312 219.101562 78.628906 219.25 78.789062 C 219.402344 78.949219 214.066406 84.421875 207.394531 91.046875 L 195.261719 103.09375 L 180.167969 103.09375 C 169.640625 103.09375 165 102.96875 164.820312 102.679688 C 164.671875 102.441406 169.691406 97.175781 176.664062 90.253906 L 188.855469 78.789062 L 178.132812 67.664062 C 172.285156 61.847656 167.039062 56.84375 166.476562 56.550781 C 165.640625 56.109375 162.8125 56.011719 151.203125 56.011719 C 141.066406 56.011719 136.875 56.132812 136.6875 56.433594 C 136.53125 56.6875 140.832031 61.230469 147.296875 67.640625 C 153.277344 73.570312 158.292969 78.628906 158.441406 78.789062 C 158.59375 78.949219 153.257812 84.421875 146.585938 91.046875 L 134.453125 103.09375 L 119.359375 103.09375 C 108.832031 103.09375 104.191406 102.96875 104.011719 102.679688 C 103.863281 102.441406 108.882812 97.175781 115.855469 90.253906 L 127.953125 78.789062 L 117.324219 67.664062 C 111.476562 61.847656 106.230469 56.84375 105.667969 56.550781 C 104.8125 56.101562 100.992188 56.011719 82.832031 56.011719 Z M 82.832031 56.011719"/> <path style="fill:rgb(29.803%,29.803%,29.803%)" d="M 22.421875 211.363281 L 22.421875 323.589844 C 23.207031 325.992188 25.355469 327.761719 27.964844 327.988281 L 355.714844 327.988281 C 359.011719 327.699219 361.578125 324.953125 361.578125 321.578125 L 361.578125 211.363281 Z M 22.421875 211.363281"/> <use mask="url(#mask0)" xlink:href="#surface5"/> <use mask="url(#mask1)" xlink:href="#surface8"/> <use mask="url(#mask2)" xlink:href="#surface11"/> <use mask="url(#mask3)" xlink:href="#surface14"/> </g> </svg>

<svg width="512" height="512" version="1.1" viewBox="0 0 384 384" xmlns="http://www.w3.org/2000/svg"><defs><linearGradient id="e" x1="165.12" x2="267.84" y1="53.815" y2="394.13" gradientTransform="matrix(.75386 0 0 .69848 -.94825 5.2909)" gradientUnits="userSpaceOnUse"><stop stop-color="#262933" offset="0"/><stop stop-color="#4b4b4b" offset="1"/></linearGradient></defs><path d="m30.965 56.234h321.93c4.6875 0 8.4844 3.8008 8.4844 8.4844v130.03c0 4.6875-3.7969 8.4844-8.4844 8.4844h-321.93c-4.6875 0-8.4883-3.7969-8.4883-8.4844v-130.03c0-4.6836 3.8008-8.4844 8.4883-8.4844z" fill="#5f626d"/><path d="m82.832 56.012c-11.992 0-21.926 0.11719-22.07 0.26172-0.14844 0.14453 4.7852 5.2812 10.961 11.414l11.23 11.102-0.10156 12.082-0.10156 12.031-60.238 0.19531v28.348c-0.027344 0.078126-0.066407 0.15234-0.089844 0.23438v191.89c0.77734 2.3945 2.9023 4.1641 5.4844 4.4141h327.86c3.2695-0.31641 5.8086-3.0664 5.8086-6.4336v-187.85c0-0.29297-0.023437-0.58203-0.0625-0.86328l-0.20703-66.977c0-4.8359-1.9805-9.4883-9.0664-9.5664l-17.25-0.19141c-9.7852-0.10937-15.492-0.027343-15.793 0.26953-0.30469 0.30469 2.5117 3.3242 10.488 11.234 6 5.9492 11.031 11.023 11.18 11.184 0.15234 0.16016-5.1836 5.6328-11.855 12.258l-12.133 12.047h-15.094c-10.527 0-15.168-0.125-15.348-0.41406-0.14844-0.23828 4.8711-5.5039 11.844-12.426l12.098-11.465-10.629-11.125c-5.8477-5.8164-11.094-10.82-11.656-11.113-0.83594-0.44141-3.6641-0.53906-15.273-0.53906-10.137 0-14.328 0.12109-14.516 0.42188-0.15625 0.25391 4.1445 4.7969 10.609 11.207 5.9805 5.9297 10.996 10.988 11.145 11.148 0.15234 0.16016-5.1836 5.6328-11.855 12.258l-12.133 12.047h-15.094c-10.527 0-15.168-0.125-15.348-0.41406-0.14844-0.23828 4.8711-5.5039 11.844-12.426l12.098-11.465-10.629-11.125c-5.8477-5.8164-11.094-10.82-11.656-11.113-0.83594-0.44141-3.6641-0.53906-15.273-0.53906-10.137 0-14.328 0.12109-14.516 0.42188-0.15625 0.25391 4.1445 4.7969 10.609 11.207 5.9805 5.9297 10.996 10.988 11.145 11.148 0.15234 0.16016-5.1836 5.6328-11.855 12.258l-12.133 12.047h-15.094c-10.527 0-15.168-0.125-15.348-0.41406-0.14844-0.23828 4.8711-5.5039 11.844-12.426l12.191-11.465-10.723-11.125c-5.8477-5.8164-11.094-10.82-11.656-11.113-0.83594-0.44141-3.6641-0.53906-15.273-0.53906-10.137 0-14.328 0.12109-14.516 0.42188-0.15625 0.25391 4.1445 4.7969 10.609 11.207 5.9805 5.9297 10.996 10.988 11.145 11.148 0.15234 0.16016-5.1836 5.6328-11.855 12.258l-12.133 12.047h-15.094c-10.527 0-15.168-0.125-15.348-0.41406-0.14844-0.23828 4.8711-5.5039 11.844-12.426l12.098-11.465-10.629-11.125c-5.8477-5.8164-11.094-10.82-11.656-11.113-0.85547-0.44922-4.6758-0.53906-22.836-0.53906z" fill="url(#e)"/><path d="m22.422 211.36v112.23c0.78516 2.4023 2.9336 4.1719 5.543 4.3984h327.75c3.2969-0.28906 5.8633-3.0352 5.8633-6.4102v-110.21z" fill="#4b4b4b"/><path transform="scale(.75)" d="m482.1 418.77c0 4.5-3.4206 8.1615-7.8164 8.5469h-437c-3.4792-0.30208-6.3438-2.6621-7.3906-5.8652v10c1.0469 3.2031 3.9115 5.5632 7.3906 5.8652h437c4.3958-0.38541 7.8164-4.0469 7.8164-8.5469v-10z" fill="#080000" opacity=".3" stroke-width="1.3333"/><path d="m30.978 56.279c-4.6875 0-8.4888 3.8008-8.4888 8.4844v14.338h338.91v-14.338c0-1.9908-0.69104-3.8184-1.8398-5.2661-0.57219-0.77931-1.3069-1.4504-2.2339-1.9717-1.2862-0.7857-2.7926-1.2466-4.4106-1.2466z" opacity=".3"/><path d="m100.87 178.56c1.6953-7.8047 8.6211-13.633 16.906-13.617l99.992 0.15625c9.5469 0.0195 17.285 7.7656 17.266 17.312l-0.0312 31.738 48.633-35.551-0.12891 70.055-48.547-33.801-0.0156 29.859c0.0312 9.5781-7.7578 17.32-17.305 17.301l-99.996-0.15234c-4.7734-0.0156-8.8477-1.7031-12.219-5.0664-3.3789-3.3867-5.0625-7.4844-5.0508-12.285l0.0898-56.527z" opacity=".3"/><path d="m100.87 173.48c1.6953-7.8047 8.6211-13.633 16.906-13.617l99.992 0.15625c9.5469 0.0195 17.285 7.7656 17.266 17.312l-0.0312 31.738 48.633-35.551-0.12891 70.055-48.547-33.801-0.0156 29.859c0.0312 9.5742-7.7578 17.32-17.305 17.301l-99.996-0.15234c-4.7734-0.0156-8.8477-1.7031-12.219-5.0664-3.3789-3.3906-5.0625-7.4844-5.0508-12.285l0.0898-56.527z" opacity=".3"/></svg>
